.local/share/icons/Gruvbox-Plus-Dark/panel/24/yate-tray-incomingchat.svg

<svg xmlns="http://www.w3.org/2000/svg" width="24" height="24" version="1.1">
 <defs>
  <style id="current-color-scheme" type="text/css">
   .ColorScheme-Text { color:#ebdbb2; } .ColorScheme-Highlight { color:#458588; }
  </style>
 </defs>
 <path style="fill:currentColor" class="ColorScheme-Text" d="M 11.601562,4.0022027 C 9.4833395,4.0373807 7.8325133,4.8240654 6.2695312,6.3752496 4.5801833,8.0518462 3.9718666,9.5915806 3.9785156,12.170172 c 0.00309,1.209902 0.1324366,2.127571 0.40625,2.896484 A 3,3 0 0 1 5,15.00025 a 3,3 0 0 1 3,3 3,3 0 0 1 -0.1855469,1.025391 l 0.037109,0.01758 c 0.529133,0.246645 1.5351631,0.574046 2.2363279,0.726562 0.94532,0.205627 1.250139,0.261547 2.326172,0.216797 2.262478,-0.09408 3.794515,-0.727884 5.240235,-2.167969 1.457084,-1.451405 2.184891,-3.196799 2.326172,-5.576171 C 20.233399,7.9827357 17.956592,4.9831174 13.888672,4.2170465 13.06498,4.0619287 12.307637,3.9904769 11.601562,4.0022027 Z M 9.5351562,7.0002496 c 0.2656961,0 0.7414338,0.5671789 1.0976568,1.3066406 0.388227,0.8059144 0.384275,1.0499644 -0.01758,1.3144534 -0.53122,0.349638 -0.9687505,0.8229794 -0.9687505,1.0468754 0,0.115608 0.3358267,0.562297 0.7460935,0.992187 0.670614,0.702688 0.779876,0.889556 1.085938,1.859375 0.191128,0.605625 0.431799,1.135695 0.548828,1.208985 0.164935,0.103292 0.370847,0.04254 0.982422,-0.294922 l 0.246093,-0.136719 c 0.48473,-0.267468 0.538121,-0.364969 0.871094,0.136719 0.189607,0.234578 0.48431,0.72058 0.654297,1.080078 0.368609,0.779549 0.304588,0.958058 -0.449219,1.259766 -1.681004,0.672809 -2.634884,-0.04942 -4.6269528,-3.498047 C 8.0356761,10.385606 7.7122131,9.2883166 8.2207031,8.2541558 8.4865161,7.7135447 9.2345442,7.0002496 9.5351562,7.0002496 Z"/>
 <circle style="fill:currentColor" class="ColorScheme-Highlight" cx="5" cy="18" r="2"/>
</svg>

<svg width="24" height="24" version="1.1" xmlns="http://www.w3.org/2000/svg">
  <defs>
    <style id="current-color-scheme" type="text/css">.ColorScheme-Text { color:#ebdbb2; } .ColorScheme-Highlight { color:#458588; } .ColorScheme-NeutralText { color:#fe8019; } .ColorScheme-PositiveText { color:#689d6a; } .ColorScheme-NegativeText { color:#fb4934; }</style>
  </defs>
  <path class="ColorScheme-Text" d="m11.6 4.002c-2.118 0.03518-3.769 0.8219-5.332 2.373-1.689 1.677-2.298 3.216-2.291 5.795 0.00309 1.21 0.1324 2.128 0.4062 2.896a3 3 0 0 1 0.6152-0.06641 3 3 0 0 1 3 3 3 3 0 0 1-0.1855 1.025l0.03711 0.01758c0.5291 0.2466 1.535 0.574 2.236 0.7266 0.9453 0.2056 1.25 0.2615 2.326 0.2168 2.262-0.09408 3.795-0.7279 5.24-2.168 1.457-1.451 2.185-3.197 2.326-5.576 0.2529-4.26-2.024-7.259-6.092-8.025-0.8237-0.1551-1.581-0.2266-2.287-0.2148zm-2.066 2.998c0.2657 0 0.7414 0.5672 1.098 1.307 0.3882 0.8059 0.3843 1.05-0.01758 1.314-0.5312 0.3496-0.9688 0.823-0.9688 1.047 0 0.1156 0.3358 0.5623 0.7461 0.9922 0.6706 0.7027 0.7799 0.8896 1.086 1.859 0.1911 0.6056 0.4318 1.136 0.5488 1.209 0.1649 0.1033 0.3708 0.04254 0.9824-0.2949l0.2461-0.1367c0.4847-0.2675 0.5381-0.365 0.8711 0.1367 0.1896 0.2346 0.4843 0.7206 0.6543 1.08 0.3686 0.7795 0.3046 0.9581-0.4492 1.26-1.681 0.6728-2.635-0.04942-4.627-3.498-1.669-2.89-1.993-3.987-1.484-5.021 0.2658-0.5406 1.014-1.254 1.314-1.254z" fill="currentColor"/>
  <circle class="ColorScheme-Highlight" cx="5" cy="18" r="2" fill="currentColor"/>
</svg>
